archdroid-icon-theme/Archdroid-LightBlue/actions/scalable/hb-queue-job.svg

<?xml version="1.0" encoding="UTF-8" standalone="no"?>
<svg
   xmlns:dc="http://purl.org/dc/elements/1.1/"
   xmlns:cc="http://creativecommons.org/ns#"
   xmlns:rdf="http://www.w3.org/1999/02/22-rdf-syntax-ns#"
   xmlns:svg="http://www.w3.org/2000/svg"
   xmlns="http://www.w3.org/2000/svg"
   xmlns:sodipodi="http://sodipodi.sourceforge.net/DTD/sodipodi-0.dtd"
   xmlns:inkscape="http://www.inkscape.org/namespaces/inkscape"
   fill="#03A9F4"
   width="48"
   height="48"
   viewBox="0 0 48 48"
   id="svg2"
   version="1.1"
   inkscape:version="0.91 r13725"
   sodipodi:docname="loyalty.svg">
  <metadata
     id="metadata10">
    <rdf:RDF>
      <cc:Work
         rdf:about="">
        <dc:format>image/svg+xml</dc:format>
        <dc:type
           rdf:resource="http://purl.org/dc/dcmitype/StillImage" />
        <dc:title></dc:title>
      </cc:Work>
    </rdf:RDF>
  </metadata>
  <defs
     id="defs8" />
  <sodipodi:namedview
     pagecolor="#ffffff"
     bordercolor="#666666"
     borderopacity="1"
     objecttolerance="10"
     gridtolerance="10"
     guidetolerance="10"
     inkscape:pageopacity="0"
     inkscape:pageshadow="2"
     inkscape:window-width="1366"
     inkscape:window-height="713"
     id="namedview6"
     showgrid="false"
     inkscape:zoom="4.9166667"
     inkscape:cx="24"
     inkscape:cy="24"
     inkscape:window-x="0"
     inkscape:window-y="30"
     inkscape:window-maximized="1"
     inkscape:current-layer="svg2" />
  <path
     d="M 8 4 C 5.79 4 4 5.79 4 8 L 4 22 C 4 23.11 4.4496875 24.110078 5.1796875 24.830078 L 23.179688 42.830078 C 23.899687 43.550078 24.9 44 26 44 C 27.11 44 28.110078 43.550078 28.830078 42.830078 L 42.830078 28.830078 C 43.550078 28.100078 44 27.1 44 26 C 44 24.89 43.550312 23.890156 42.820312 23.160156 L 24.830078 5.1699219 C 24.110078 4.4499219 23.11 4 22 4 L 8 4 z M 11 8 C 12.66 8 14 9.34 14 11 C 14 12.66 12.66 14 11 14 C 9.34 14 8 12.66 8 11 C 8 9.34 9.34 8 11 8 z "
     id="path4142" />
</svg>

<svg xmlns="http://www.w3.org/2000/svg" fill="#03A9F4" viewBox="0 0 48 48"><path d="m8 4c-2.21 0-4 1.79-4 4v14c0 1.11.45 2.11 1.18 2.83l18 18c.72.72 1.72 1.17 2.82 1.17 1.11 0 2.11-.45 2.83-1.17l14-14c.72-.73 1.17-1.73 1.17-2.83 0-1.11-.45-2.11-1.18-2.84l-17.99-17.99c-.72-.72-1.72-1.17-2.83-1.17h-14m3 4c1.66 0 3 1.34 3 3 0 1.66-1.34 3-3 3-1.66 0-3-1.34-3-3 0-1.66 1.34-3 3-3"/></svg>
